src/assets/duotone/DocumentPrevious.svg

<svg width="24" height="24" viewBox="0 0 24 24"  xmlns="http://www.w3.org/2000/svg">
<path opacity="0.4" d="M20.5 10.19H17.61C15.24 10.19 13.31 8.26 13.31 5.89V3C13.31 2.45 12.86 2 12.31 2H8.07C4.99 2 2.5 4 2.5 7.57V16.43C2.5 20 4.99 22 8.07 22H15.93C19.01 22 21.5 20 21.5 16.43V11.19C21.5 10.64 21.05 10.19 20.5 10.19Z" />
<path d="M15.8002 2.21048C15.3902 1.80048 14.6802 2.08048 14.6802 2.65048V6.14048C14.6802 7.60048 15.9202 8.81048 17.4302 8.81048C18.3802 8.82048 19.7002 8.82048 20.8302 8.82048C21.4002 8.82048 21.7002 8.15048 21.3002 7.75048C19.8602 6.30048 17.2802 3.69048 15.8002 2.21048Z" />
<path d="M13.0002 14.2504H8.81024L9.53023 13.5304C9.82023 13.2404 9.82023 12.7604 9.53023 12.4704C9.24023 12.1804 8.76023 12.1804 8.47023 12.4704L6.47023 14.4704C6.46023 14.4804 6.46023 14.4904 6.45023 14.4904C6.39023 14.5504 6.34023 14.6304 6.30023 14.7104C6.30023 14.7204 6.30023 14.7204 6.29023 14.7304C6.26023 14.8104 6.25023 14.8904 6.24023 14.9704C6.24023 15.0004 6.24023 15.0204 6.24023 15.0504C6.24023 15.1104 6.26023 15.1704 6.28023 15.2304C6.29023 15.2604 6.30023 15.2804 6.31023 15.3004C6.35023 15.3804 6.39023 15.4604 6.46023 15.5204L8.46023 17.5204C8.61023 17.6704 8.80023 17.7404 8.99023 17.7404C9.18023 17.7404 9.37023 17.6704 9.52024 17.5204C9.81024 17.2304 9.81024 16.7504 9.52024 16.4604L8.80023 15.7404H13.0002C13.4102 15.7404 13.7502 15.4004 13.7502 14.9904C13.7502 14.5804 13.4102 14.2504 13.0002 14.2504Z" />
</svg>

<?xml version="1.0" encoding="UTF-8"?>
<svg width="24" height="24" viewBox="0 0 24 24" xmlns="http://www.w3.org/2000/svg">
 <path d="m20.5 10.19h-2.89c-2.37 0-4.3-1.93-4.3-4.3v-2.89c0-0.55-0.45-1-1-1h-4.24c-3.08 0-5.57 2-5.57 5.57v8.86c0 3.57 2.49 5.57 5.57 5.57h7.86c3.08 0 5.57-2 5.57-5.57v-5.24c0-0.55-0.45-1-1-1z" opacity=".4"/>
 <path d="m15.8 2.2105c-0.41-0.41-1.12-0.13-1.12 0.44v3.49c0 1.46 1.24 2.67 2.75 2.67 0.95 0.01 2.27 0.01 3.4 0.01 0.57 0 0.87-0.67 0.47-1.07-1.44-1.45-4.02-4.06-5.5-5.54z"/>
 <path d="m13 14.25h-4.19l0.71999-0.72c0.29-0.29 0.29-0.77 0-1.06s-0.77-0.29-1.06 0l-2 2c-0.01 0.01-0.01 0.02-0.02 0.02-0.06 0.06-0.11 0.14-0.15 0.22 0 0.01 0 0.01-0.01 0.02-0.03 0.08-0.04 0.16-0.05 0.24v0.08c0 0.06 0.02 0.12 0.04 0.18 0.01 0.03 0.02 0.05 0.03 0.07 0.04 0.08 0.08 0.16 0.15 0.22l2 2c0.15 0.15 0.34 0.22 0.53 0.22s0.38-0.07 0.53001-0.22c0.29-0.29 0.29-0.77 0-1.06l-0.72001-0.72h4.2c0.41 0 0.75-0.34 0.75-0.75s-0.34-0.74-0.75-0.74z"/>
</svg>
